X:22
T:The Blackburnian Jig
R:jig
C:Paul S. Cranford
O:Cape Breton Island
S:http://www.cranfordpub.com
D:Brenda Stubbert, Music All Around
B:Brenda Stubbert, The 2nd Collection
Z:psc, (re-formatted,updated 9/17/04)
N:
H:                                                        copyrights Cranford Publications, SOCAN
L:1/8
M:6/8
Q:300
K:Ador
z|A,2 A AGE|GED TB,2 G,|A,AA cBA|G3 GDB,|
A,AA AGE|GAB GBd|edc BAG|A3 TA2:|
|:z|{e/f/g/} a2 A Tc2 A|BGE D2 B,|A,AA cBA|[1G3 GDB,|
A,2 A cBA|GED G2 d|edc BAG|A3 TA2:|
[2G3 G2 (b|a)ba gag|edc Bgf|edc BAG|A3 TA2:|
